Duo/duo.svg

<svg width="180" height="88" viewBox="0 0 180 88" fill="none" xmlns="http://www.w3.org/2000/svg"><path opacity="0.85" d="M0.255859 87.2593H29.257C44.7721 87.2593 57.4484 75.0604 58.2071 59.7244H0.255859V87.2593Z" fill="#74BF4B"/><path d="M29.2485 29.2568H0.255859V56.7918H58.1986C57.4398 41.4472 44.7721 29.2568 29.2485 29.2568Z" fill="#74BF4B"/><path d="M151.024 29.2568C135.509 29.2568 122.833 41.4557 122.074 56.7918H179.992C179.233 41.4472 166.565 29.2568 151.042 29.2568" fill="#74BF4B"/><path opacity="0.85" d="M151.024 87.2593C166.54 87.2593 179.216 75.0604 179.975 59.7244H122.057C122.816 75.0689 135.484 87.2593 151.007 87.2593" fill="#74BF4B"/><path d="M61.1396 29.2568V58.258C61.1396 73.7731 73.3386 86.4494 88.6746 87.2081V29.2568H61.1396Z" fill="#74BF4B"/><path opacity="0.85" d="M91.5984 29.2568V87.2592H119.133V58.258V29.2568H91.5984Z" fill="#74BF4B"/><path d="M19.5642 0.26416H15.9412V14.7648H19.5642V0.26416Z" fill="white"/><path d="M37.8328 7.51032C37.8328 12.1819 41.4132 15.0206 45.488 15.0206C47.0992 15.0206 48.3353 14.637 48.7956 14.5006V10.6048C48.6421 10.6901 47.4487 11.372 45.7523 11.372C43.3397 11.372 41.7797 9.65856 41.7797 7.5018C41.7797 5.34504 43.4079 3.63156 45.7523 3.63156C47.4828 3.63156 48.6507 4.33912 48.7956 4.40731V0.528554C48.4546 0.426257 47.1929 0.00854492 45.488 0.00854492C41.0722 0.00854492 37.8328 3.17975 37.8328 7.51032Z" fill="white"/><path d="M0 7.51034C0 12.1819 3.57187 15.0206 7.6467 15.0206C9.2664 15.0206 10.5025 14.637 10.9543 14.5006V10.6048C10.7923 10.6901 9.60739 11.372 7.91096 11.372C5.48994 11.372 3.93843 9.65858 3.93843 7.50181C3.93843 5.34505 5.56666 3.63158 7.91096 3.63158C9.64149 3.63158 10.8009 4.33913 10.9543 4.40733V0.528572C10.6133 0.426275 9.35165 0.00856202 7.6467 0.00856202C3.2394 3.72753e-05 0 3.17977 0 7.51034Z" fill="white"/><path d="M60.2018 0C55.786 0 52.6147 3.35875 52.6147 7.50178C52.6147 11.6448 55.786 15.0121 60.2018 15.0121C64.6176 15.0121 67.7888 11.6533 67.7888 7.50178C67.7888 3.35023 64.6176 0 60.2018 0ZM60.2018 11.3294C58.045 11.3294 56.4509 9.62444 56.4509 7.5103C56.4509 5.39616 58.0535 3.69974 60.2018 3.69974C62.35 3.69974 63.9527 5.41321 63.9527 7.5103C63.9527 9.60739 62.35 11.3294 60.2018 11.3294Z" fill="white"/><path d="M30.9022 6.00995L29.9048 5.68601C29.308 5.49846 28.2424 5.18305 28.2424 4.305C28.2424 3.60597 29.0267 3.11153 30.4845 3.11153C31.7376 3.11153 33.2635 3.53777 33.3147 3.55482V0.460336C33.2039 0.434762 31.55 0 29.7854 0C26.4437 0 24.4319 1.8243 24.4319 4.53517C24.4319 6.93914 26.1198 8.13261 28.1316 8.77196C28.3618 8.84869 28.6857 8.95098 28.9074 9.02771C29.8025 9.30902 30.5186 9.73526 30.5186 10.4684C30.5186 11.2953 29.6917 11.8238 27.8844 11.8238C26.2988 11.8238 24.7814 11.3635 24.4575 11.2868V14.6285C24.6365 14.6626 26.4437 15.0206 28.3703 15.0206C31.1409 15.0206 34.3206 13.8016 34.3206 10.153C34.3206 8.38835 33.2465 6.76012 30.8936 6.00995H30.9022Z" fill="white"/></svg>

<svg fill="none" viewBox="0 0 180 88" xmlns="http://www.w3.org/2000/svg"><path fill="#74BF4B" d="M.256 87.26h29.001c15.515 0 28.191-12.2 28.95-27.536H.256z" opacity=".85"/><path fill="#74BF4B" d="M29.249 29.257H.256v27.535h57.943c-.76-15.345-13.427-27.535-28.95-27.535m121.775 0c-15.515 0-28.191 12.199-28.95 27.535h57.918c-.759-15.345-13.427-27.535-28.95-27.535"/><path fill="#74BF4B" d="M151.024 87.26c15.516 0 28.192-12.2 28.951-27.536h-57.918c.759 15.345 13.427 27.535 28.95 27.535" opacity=".85"/><path fill="#74BF4B" d="M61.14 29.257v29.001c0 15.515 12.199 28.191 27.535 28.95V29.257z"/><path fill="#74BF4B" d="M91.598 29.257v58.002h27.535V29.257z" opacity=".85"/><path fill="#fff" d="M19.564.264h-3.623v14.5h3.623zM37.833 7.51c0 4.672 3.58 7.51 7.655 7.51 1.611 0 2.847-.383 3.308-.52v-3.895c-.154.085-1.347.767-3.044.767-2.412 0-3.972-1.713-3.972-3.87s1.628-3.87 3.972-3.87c1.73 0 2.899.707 3.044.775V.53c-.341-.103-1.603-.52-3.308-.52-4.416 0-7.655 3.17-7.655 7.501M0 7.51c0 4.672 3.572 7.51 7.647 7.51 1.62 0 2.855-.383 3.307-.52v-3.895c-.162.085-1.347.767-3.043.767-2.421 0-3.973-1.713-3.973-3.87s1.629-3.87 3.973-3.87c1.73 0 2.89.707 3.043.775V.53C10.614.427 9.352.01 7.647.01 3.239 0 0 3.179 0 7.51M60.202 0c-4.416 0-7.587 3.359-7.587 7.502s3.171 7.51 7.587 7.51 7.587-3.359 7.587-7.51C67.789 3.35 64.618 0 60.202 0m0 11.33c-2.157 0-3.751-1.706-3.751-3.82S58.053 3.7 60.2 3.7c2.149 0 3.752 1.713 3.752 3.81s-1.603 3.82-3.751 3.82M30.902 6.01l-.997-.324c-.597-.188-1.663-.503-1.663-1.381 0-.699.785-1.193 2.242-1.193 1.254 0 2.78.426 2.83.443V.46C33.205.435 31.55 0 29.786 0c-3.341 0-5.353 1.824-5.353 4.535 0 2.404 1.688 3.598 3.7 4.237.23.077.554.179.775.256.895.281 1.612.707 1.612 1.44 0 .827-.827 1.356-2.635 1.356-1.585 0-3.103-.46-3.427-.537v3.342c.18.034 1.987.392 3.913.392 2.77 0 5.95-1.22 5.95-4.868 0-1.765-1.074-3.393-3.426-4.143z"/></svg>
